X: 6998
T: Chicken That Made The Soup, The
R: jig
M: 6/8
K: Dmajor
|:f/e/|dAF G2B|AFD E2F|DED F2E|DFA f2e|
dAF G2B|AFD E2F|DED F2E|DED D2:|
F/A/|B2A F2A|B2A F2A|B2A F2A|dcd d2A|
B2A F2A|B2A F2A|EFG F2E|DED DFA|
B2A F2A|B2A F2A|B2A F2A|d2e f2e|
ded cdc|BcB AFA|B2A cBc|ded d2||

